!!!COM: Kanachyan, Barsegh
!!!CDT: 1885-1976
!!!OTL: National Anthem, Armenia
!!!ENC: Davis, Matthew J.
!!Vocal Line Only
**kern
*clefG2
*k[f#C#]
*D:
*M4/4
=1-
4.a
8g
4f#
4d
=2
4.a
8g
4f#
4d
=3
4.b
8cc#
4dd
(8ee
8dd)
=4
4cc
4b
2a
=5
4.b
8cc#
4dd
4ee
=6
4.a
8g
4f#
4d
=7
4e
4f#
4g
(8a
8g)
=8
4f#
4g
2a
=9
4.b
8cc#
4dd
4ee
=10
4.a
8g
4f#
4d
=11
4e
4f#
4g
(8a
8g)
=12
4f#
4e
2d
==|!
*-
